dist/img/icons/16px/Eye.svg

<?xml version="1.0" encoding="UTF-8"?>
<svg width="24px" height="24px" viewBox="0 0 24 24" version="1.1" xmlns="http://www.w3.org/2000/svg" xmlns:xlink="http://www.w3.org/1999/xlink">
    <!-- Generator: Sketch 53.1 (72631) - https://sketchapp.com -->
    <title>Icons/16px/Eye</title>
    <desc>Created with Sketch.</desc>
    <g id="Icons/16px/Eye" stroke="none" stroke-width="1" fill="none" fill-rule="evenodd">
        <g id="eye" transform="translate(4.000000, 6.000000)" fill="#212121" fill-rule="nonzero">
            <path d="M8,0.363636364 C4.36363636,0.363636364 1.25818182,2.62545455 0,5.81818182 C1.25818182,9.01090909 4.36363636,11.2727273 8,11.2727273 C11.6363636,11.2727273 14.7418182,9.01090909 16,5.81818182 C14.7418182,2.62545455 11.6363636,0.363636364 8,0.363636364 Z M8,9.45454545 C5.99272727,9.45454545 4.36363636,7.82545455 4.36363636,5.81818182 C4.36363636,3.81090909 5.99272727,2.18181818 8,2.18181818 C10.0072727,2.18181818 11.6363636,3.81090909 11.6363636,5.81818182 C11.6363636,7.82545455 10.0072727,9.45454545 8,9.45454545 Z M8,3.63636364 C6.79272727,3.63636364 5.81818182,4.61090909 5.81818182,5.81818182 C5.81818182,7.02545455 6.79272727,8 8,8 C9.20727273,8 10.1818182,7.02545455 10.1818182,5.81818182 C10.1818182,4.61090909 9.20727273,3.63636364 8,3.63636364 Z" id="Shape"></path>
        </g>
    </g>
</svg>

<svg width="24" height="24" viewBox="0 0 24 24" xmlns="http://www.w3.org/2000/svg" xmlns:xlink="http://www.w3.org/1999/xlink"><g id="Icons/16px/Eye" stroke="none" stroke-width="1" fill="none" fill-rule="evenodd"><g id="eye" transform="translate(4 6)" fill="#212121" fill-rule="nonzero"><path d="M8 .364c-3.636 0-6.742 2.261-8 5.454 1.258 3.193 4.364 5.455 8 5.455s6.742-2.262 8-5.455C14.742 2.625 11.636.364 8 .364zm0 9.09a3.638 3.638 0 0 1-3.636-3.636A3.638 3.638 0 0 1 8 2.182a3.638 3.638 0 0 1 3.636 3.636A3.638 3.638 0 0 1 8 9.455zm0-5.818a2.179 2.179 0 0 0-2.182 2.182A2.18 2.18 0 0 0 8 8a2.179 2.179 0 0 0 2.182-2.182A2.179 2.179 0 0 0 8 3.636z" id="Shape"/></g></g></svg>
